X:3449
T:Corri-Corri
R:Danza
C:Tradicional
S:Música Tradicional Asturiana, (C) Tello & Tito. Asturies, 2001.
S:http://pagina.de/MusTradAst <telloytito@asturies.org>
O:Arenas (Cabrales)
A:Asturies
Z:Danzas y Bailes I
M:2/4
L:1/8
Q:1/2=72
K:C
 BB|c3/2B/ Ac| B3/2B/ BB|cB A^G|A3/2B/ cB|cB Ac| B3/2B/ BB|cB A^G|A2 A2-|A2 AA|B3/2B/ A^G|
[K:A]
|: A3/2c/ ce|ee ff|e3/2d/ cc|BB AG :|A4-|A2 z2|


